X:4734
T:El Chalaneru
R:Xiraldilla
C:Tradicional
S:Msica Tradicional Asturiana, (C) Tello & Tito. Asturies, 2001.
S:http://pagina.de/MusTradAst <telloytito@asturies.org>
A:Asturies
Z:Les cuarenta principales
M:2/4
L:1/8
Q:1/4=76
K:C
|E2 ED|C4|E3 F|G2 GF|G4-|G4|G2 GG|G4|A3 G|F2 GF|[1 E4-|E4 :|[2 E4|F3 E|
|D2 ED|C4|D3 C|B,2 C2-|C7/2 D/|E4|F3 E|D2 ED|C4|D3 C|B,2 C2-|C4|
